lib/svgs/leave.svg

<svg xmlns="http://www.w3.org/2000/svg" viewBox="0 0 20 20">
    <path fill="#000" fill-rule="evenodd" d="M14.0600719,10.6996 L7.3268,10.6996 C6.99542915,10.6996 6.7268,10.4309708 6.7268,10.0996 C6.7268,9.76822915 6.99542915,9.4996 7.3268,9.4996 L14.0598474,9.4996 L12.3569582,7.79608629 C12.1226865,7.56172876 12.1227562,7.18182978 12.3571137,6.94755816 C12.5914712,6.71328655 12.9713702,6.71335619 13.2056418,6.94771371 L15.914269,9.65733414 C16.03384,9.76701557 16.1088,9.92455386 16.1088,10.0996 C16.1088,10.2699856 16.0377784,10.4237832 15.9237242,10.5330039 L13.2055641,13.2511641 C12.9712495,13.4854786 12.5913505,13.4854786 12.3570359,13.2511641 C12.1227214,13.0168495 12.1227214,12.6369505 12.3570359,12.4026359 L14.0600719,10.6996 L14.0600719,10.6996 Z M14.745,2.6 C14.745,2.26862915 14.4763708,2 14.145,2 L4.6,2 C4.26862915,2 4,2.26862915 4,2.6 L4,17.6 C4,17.9313708 4.26862915,18.2 4.6,18.2 L14.145,18.2 C14.4763708,18.2 14.745,17.9313708 14.745,17.6 L14.745,15.554 C14.745,15.2226292 14.4763708,14.954 14.145,14.954 C13.8136292,14.954 13.545,15.2226292 13.545,15.554 L13.5450001,17 L5.25188041,17 L5.20000005,3.23025191 L13.5450001,3.20000005 L13.545,4.645 C13.545,4.97637085 13.8136292,5.245 14.145,5.245 C14.4763708,5.245 14.745,4.97637085 14.745,4.645 L14.745,2.6 L14.745,2.6 Z"/>
</svg>

<svg xmlns="http://www.w3.org/2000/svg" viewBox="0 0 20 20">
    <path fill="#000" fill-rule="evenodd" d="M14.06 10.7H7.327a.6.6 0 0 1 0-1.2h6.733l-1.703-1.704a.6.6 0 1 1 .849-.848l2.708 2.71a.598.598 0 0 1 .01.875l-2.718 2.718a.6.6 0 0 1-.849-.848L14.06 10.7m.685-8.1a.6.6 0 0 0-.6-.6H4.6a.6.6 0 0 0-.6.6v15a.6.6 0 0 0 .6.6h9.545a.6.6 0 0 0 .6-.6v-2.046a.6.6 0 0 0-1.2 0V17H5.252L5.2 3.23l8.345-.03v1.445a.6.6 0 0 0 1.2 0V2.6"/>
</svg>
